X: 250
T:Miss Isabella McPherson Grant's Strathspey -- of Ballindalloch
B:William Marshall's Scottish Airs, Melodies, Strathspeys, Reels &c (1822)
C:William Marshall
L:1/8
M:C
O:Scotland
R:Strathspey
Z:Clark Bernst + Richard Robinson
%%Page:51 - 1
F:http://richardrobinson.tunebook.org.uk/tune/4093
%%TBL:{"version":1,"type":"tune","id":"4093"}
K:F
%%staves {1 2}
V:1
a | \
c<c (!trill!c>B) A>c ~f2 | d<d (!trill!d>c) (d>f)g>a | \
f>FA>F A<c ~f2 | (d>g) (f/e/)d/c/ ~f2 f :|
g |\
a>f (a/g/)f/e/ fc ~f2 | b>g (b/a/)g/f/ (e/f/)g/a/ g(f/g/) | \
a>f (a/g/)f/e/ (f>c) d<f | ~c>f e/f/g/e/ ~f2 (fg) |
a>f (a/g/)f/e/ fc f2 | b>g (b/a/)g/f/ (e/f/)g/a/ g(f/g/) | \
(b/a/)g/f/ g>e f>c d<f | ~c>f e/f/g/e/ ~f2 f |]
V:2 middle=d clef=bass
L:1/4
z/ | fffa | bbgc' | fffa | bc'ff/ :| \
z/ | fbaf | gfc'c' | gbab | c'cff | fbaf | gfc'c' | fbab | c'cff/ |]

